X: 1
T: Councillor MacDonaghs Lamentation
B: A COLECTION of the most Celebrated Irish Tunes10a
M: 3/4
L: 1/8
K: Gm
GA | B2 (AG) (GA) | G4 GA | B2 (B/c/d) Bd | c4 fe |
d2 (de) fe | (dc) de fd | c2 (BA) (GA) | F4 GA |
B2 (AG) (ga) | g4 a2 | b2 (ag) (fg) | f4 (dc) |
B2 B2 Bc | A2 A2 Bc | d2 G2 (GA) | G4 :|
|: GF | D2 G2 (GA) | G4 (GF) | D2 B2 Bc | B4 AG |
F2 f2 fg | (gf) (ed) (cB) | g2 (ag) (fe) | d4 (dc) |
B4 (dc) | A4 c2 | dc d=e fg | f4 dc |
B2 B2 Bc | A2 A2 Bc | d2 G2 (GA) | G4 |]
